**harmony	**harte	**kern	**silbe	**rhyme	**timestamp	**phrase
*M4/4	*M4/4	*ICvox	*	*	*	*
*	*	*VRlead	*	*	*	*
*	*	*Hstimme	*	*	*	*
*f#:	*f#:	*f#:	*	*	*f#:	*f#:
*	*	*M4/4	*	*	*	*
*	*	*clefG2	*	*	*	*
1r;	1r	r;	.	.	0	.
=1	=1	=1	=1	=1	=1	=1
*>Letter>A2	*>Letter>A2	*>Letter>A2	*>Letter>A2	*>Letter>A2	*>Letter>A2	*>Letter>A2
*>Label>Intro	*>Label>Intro	*>Label>Intro	*>Label>Intro	*>Label>Intro	*>Label>Intro	*>Label>Intro
1F#m	F#:min	1r	.	.	0.441	newline
=2	=2	=2	=2	=2	=2	=2
1F#m	F#:min	1r	.	.	2.522	.
=3	=3	=3	=3	=3	=3	=3
1F#m	F#:min	1r	.	.	4.602	.
=4	=4	=4	=4	=4	=4	=4
1F#m	F#:min	2r	.	.	6.683	.
.	.	8r	.	.	.	.
.	.	8C#	I-	.	.	.
.	.	8F#	-ma-	.	.	.
.	.	8G#	-gine	.	.	.
=5	=5	=5	=5	=5	=5	=5
*>Letter>A	*>Letter>A	*>Letter>A	*>Letter>A	*>Letter>A	*>Letter>A	*>Letter>A
*>Label>Verse	*>Label>Verse	*>Label>Verse	*>Label>Verse	*>Label>Verse	*>Label>Verse	*>Label>Verse
1F#m	F#:min	8A	me	.	8.764	newline
.	.	8G#	and	.	.	.
.	.	4A	you	A	.	.
.	.	8r	.	.	.	.
.	.	8G#	I	.	.	.
.	.	4A	do	A	.	.
=6	=6	=6	=6	=6	=6	=6
1F#m	F#:min	4r	.	.	10.743	.
.	.	4c#	I	.	.	.
.	.	8B	think	.	.	.
.	.	8A	a-	.	.	.
.	.	8G#	-bout	.	.	.
.	.	8F#	you	A	.	.
=7	=7	=7	=7	=7	=7	=7
1EM	E:maj	8G#	day	.	12.723	.
.	.	8F#	and	.	.	.
.	.	4G#	night	B	.	.
.	.	8r	.	.	.	.
.	.	8G#	It's	.	.	.
.	.	8E	on-	.	.	.
.	.	8F#	-ly	.	.	.
=8	=8	=8	=8	=8	=8	=8
1EM	E:maj	16G#	right	B	14.703	.
.	.	16A	_	.	.	.
.	.	4G#	_	.	.	.
.	.	8B	to	.	.	.
.	.	8A	think	.	.	.
.	.	8G#	a-	.	.	.
.	.	8F#	-bout	.	.	.
.	.	8E	the	.	.	.
=9	=9	=9	=9	=9	=9	=9
1DMm	D:7	8F#	girl	.	16.682	newline
.	.	8E	you	.	.	.
.	.	4F#	love	.	.	.
.	.	8r	.	.	.	.
.	.	8F#	and	.	.	.
.	.	8D	hold	.	.	.
.	.	8E	her	.	.	.
=10	=10	=10	=10	=10	=10	=10
1DMm	D:7	4F#	tight	B	18.649	.
.	.	8r	.	.	.	.
.	.	8F#	So	.	.	.
.	.	8F#	ha-	.	.	.
.	.	4G#	-ppy	.	.	.
.	.	8F#	to-	.	.	.
=11	=11	=11	=11	=11	=11	=11
1C#Mm	C#:7	4E#	-ge-	.	20.616	.
.	.	[2.c#	-ther	.	.	.
=12	=12	=12	=12	=12	=12	=12
1C#Mm	C#:7	4c#]	_	.	22.583	.
.	.	4r	.	.	.	.
.	.	8r	.	.	.	.
.	.	8C#	If	.	.	.
.	.	8F#	I	.	.	.
.	.	8G#	should	.	.	.
=13	=13	=13	=13	=13	=13	=13
*>Letter>A	*>Letter>A	*>Letter>A	*>Letter>A	*>Letter>A	*>Letter>A	*>Letter>A
*>Label>Verse	*>Label>Verse	*>Label>Verse	*>Label>Verse	*>Label>Verse	*>Label>Verse	*>Label>Verse
1F#m	F#:min	8A	call	.	24.55	newline
.	.	8G#	you	.	.	.
.	.	4A	up	.	.	.
.	.	8r	.	.	.	.
.	.	8A	in-	.	.	.
.	.	8F#	-vest	.	.	.
.	.	8G#	a	.	.	.
=14	=14	=14	=14	=14	=14	=14
1F#m	F#:min	4A	dime	B	26.535	.
.	.	8r	.	.	.	.
.	.	8c#	and	.	.	.
.	.	8B	you	.	.	.
.	.	8A	say	.	.	.
.	.	8G#	you	.	.	.
.	.	8F#	be-	.	.	.
=15	=15	=15	=15	=15	=15	=15
1EM	E:maj	8G#	-long	.	28.519	.
.	.	8F#	to	.	.	.
.	.	4G#	me	C	.	.
.	.	8r	.	.	.	.
.	.	8G#	and	.	.	.
.	.	8E	ease	C	.	.
.	.	8F#	my	.	.	.
=16	=16	=16	=16	=16	=16	=16
1EM	E:maj	16G#	mind	B	30.504	.
.	.	16A	_	.	.	.
.	.	4G#	_	.	.	.
.	.	8B	I-	.	.	.
.	.	8A	-ma-	.	.	.
.	.	8G#	-gine	.	.	.
.	.	8F#	how	.	.	.
.	.	8E	the	.	.	.
=17	=17	=17	=17	=17	=17	=17
1DMm	D:7	8F#	world	.	32.488	newline
.	.	8E	could	.	.	.
.	.	4F#	be	C	.	.
.	.	8r	.	.	.	.
.	.	8F#	so	.	.	.
.	.	8D	ve-	.	.	.
.	.	8E	-ry	.	.	.
=18	=18	=18	=18	=18	=18	=18
1DMm	D:7	4F#	fine	B	34.448	.
.	.	8r	.	.	.	.
.	.	8F#	So	.	.	.
.	.	8F#	ha-	.	.	.
.	.	4G#	-ppy	.	.	.
.	.	8F#	to-	.	.	.
=19	=19	=19	=19	=19	=19	=19
1C#Mm	C#:7	4E#	-ge-	.	36.407	.
.	.	[2.c#	-ther	.	.	.
=20	=20	=20	=20	=20	=20	=20
1C#Mm	C#:7	2c#]	_	.	38.366	.
.	.	2r	.	.	.	.
=21	=21	=21	=21	=21	=21	=21
*>Letter>B	*>Letter>B	*>Letter>B	*>Letter>B	*>Letter>B	*>Letter>B	*>Letter>B
*>Label>Chorus	*>Label>Chorus	*>Label>Chorus	*>Label>Chorus	*>Label>Chorus	*>Label>Chorus	*>Label>Chorus
1F#M	F#:maj	4f#	I	.	40.325	newline
.	.	4c#	can't	.	.	.
.	.	4A#	see	C	.	.
.	.	4F#	me	C	.	.
=22	=22	=22	=22	=22	=22	=22
1C#mm	C#:min7	8E#	lo-	.	42.299	.
.	.	8G#	-ving	.	.	.
.	.	8B	no-	.	.	.
.	.	4d#	-bo-	.	.	.
.	.	8e	-dy	c	.	.
.	.	4d#	like	.	.	.
=23	=23	=23	=23	=23	=23	=23
1F#M	F#:maj	4c#	you	.	44.273	.
.	.	8r	.	.	.	.
.	.	8c#	for	.	.	.
.	.	8c#	all	.	.	.
.	.	4d#	my	.	.	.
.	.	16e	life	B	.	.
.	.	16f#	_	.	.	.
=24	=24	=24	=24	=24	=24	=24
1AM	A:maj	2.e	_	.	46.246	.
.	.	4r	.	.	.	.
=25	=25	=25	=25	=25	=25	=25
1F#M	F#:maj	4f#	When	.	48.22	.
.	.	4c#	you're	.	.	.
.	.	4A#	with	.	.	.
.	.	4F#	me	c	.	.
=26	=26	=26	=26	=26	=26	=26
1C#mm	C#:min7	8E#	ba-	.	50.194	.
.	.	8G#	-by	.	.	.
.	.	8B	the	.	.	.
.	.	4d#	skies	.	.	.
.	.	8e	will	.	.	.
.	.	4d#	be	c	.	.
=27	=27	=27	=27	=27	=27	=27
1F#M	F#:maj	4c#	blue	A	52.168	.
.	.	8r	.	.	.	.
.	.	8c#	for	.	.	.
.	.	8c#	all	.	.	.
.	.	4d#	my	.	.	.
.	.	16e	life	B	.	.
.	.	16f#	_	.	.	.
=28	=28	=28	=28	=28	=28	=28
1AM	A:maj	2.e	_	.	54.142	.
.	.	4r	.	.	.	.
=29	=29	=29	=29	=29	=29	=29
*>Letter>A	*>Letter>A	*>Letter>A	*>Letter>A	*>Letter>A	*>Letter>A	*>Letter>A
*>Label>Verse	*>Label>Verse	*>Label>Verse	*>Label>Verse	*>Label>Verse	*>Label>Verse	*>Label>Verse
1F#m	F#:min	8A	Me	.	56.115	newline
.	.	8G#	and	.	.	.
.	.	4A	you	A	.	.
.	.	8r	.	.	.	.
.	.	8A	and	.	.	.
.	.	8F#	you	.	.	.
.	.	8G#	and	.	.	.
=30	=30	=30	=30	=30	=30	=30
1F#m	F#:min	4A	me	C	58.135	.
.	.	8r	.	.	.	.
.	.	8c#	No	.	.	.
.	.	8B	ma-	.	.	.
.	.	8A	-tter	.	.	.
.	.	8G#	how	.	.	.
.	.	8F#	they	.	.	.
=31	=31	=31	=31	=31	=31	=31
1EM	E:maj	8G#	toss	.	60.156	.
.	.	8F#	the	.	.	.
.	.	4G#	dice	B	.	.
.	.	8r	.	.	.	.
.	.	8G#	it	.	.	.
.	.	8E	had	.	.	.
.	.	8F#	to	.	.	.
=32	=32	=32	=32	=32	=32	=32
1EM	E:maj	4G#	be	C	62.176	.
.	.	8r	.	.	.	.
.	.	8B	The	.	.	.
.	.	8A	on-	.	.	.
.	.	8G#	-ly	.	.	.
.	.	8F#	one	.	.	.
.	.	8E	for	.	.	.
=33	=33	=33	=33	=33	=33	=33
1DMm	D:7	8F#	me	.	64.196	newline
.	.	8E	is	.	.	.
.	.	4F#	you	A	.	.
.	.	8r	.	.	.	.
.	.	8F#	and	.	.	.
.	.	8D	you	.	.	.
.	.	8E	for	.	.	.
=34	=34	=34	=34	=34	=34	=34
1DMm	D:7	4F#	me	C	66.186	.
.	.	8r	.	.	.	.
.	.	8F#	so	.	.	.
.	.	8F#	ha-	.	.	.
.	.	4G#	-ppy	.	.	.
.	.	8F#	to-	.	.	.
=35	=35	=35	=35	=35	=35	=35
1C#Mm	C#:7	4E#	-ge-	.	68.176	.
.	.	[2.c#	-ther	.	.	.
=36	=36	=36	=36	=36	=36	=36
1C#Mm	C#:7	2c#]	_	.	70.166	.
.	.	2r	.	.	.	.
=37	=37	=37	=37	=37	=37	=37
*>Letter>B	*>Letter>B	*>Letter>B	*>Letter>B	*>Letter>B	*>Letter>B	*>Letter>B
*>Label>Chorus	*>Label>Chorus	*>Label>Chorus	*>Label>Chorus	*>Label>Chorus	*>Label>Chorus	*>Label>Chorus
1F#M	F#:maj	4f#	I	B	72.156	newline
.	.	4c#	can't	.	.	.
.	.	4A#	see	C	.	.
.	.	4F#	me	c	.	.
=38	=38	=38	=38	=38	=38	=38
1C#mm	C#:min7	8E#	lo-	.	74.139	.
.	.	8G#	-ving	.	.	.
.	.	8B	no-	.	.	.
.	.	4d#	-bo-	.	.	.
.	.	8e	-dy	c	.	.
.	.	4d#	like	.	.	.
=39	=39	=39	=39	=39	=39	=39
1F#M	F#:maj	4c#	you	A	76.121	.
.	.	8r	.	.	.	.
.	.	8c#	for	.	.	.
.	.	8c#	all	.	.	.
.	.	4d#	my	.	.	.
.	.	16e	life	B	.	.
.	.	16f#	_	.	.	.
=40	=40	=40	=40	=40	=40	=40
1AM	A:maj	2.e	_	.	78.103	.
.	.	4r	.	.	.	.
=41	=41	=41	=41	=41	=41	=41
1F#M	F#:maj	4f#	When	.	80.086	.
.	.	4c#	you're	.	.	.
.	.	4A#	with	.	.	.
.	.	4F#	me	c	.	.
=42	=42	=42	=42	=42	=42	=42
1C#mm	C#:min7	8E#	ba-	.	82.068	.
.	.	8G#	-by	c	.	.
.	.	8B	the	.	.	.
.	.	4d#	skies	b	.	.
.	.	8e	will	.	.	.
.	.	4d#	be	c	.	.
=43	=43	=43	=43	=43	=43	=43
1F#M	F#:maj	4c#	blue	A	84.05	.
.	.	8r	.	.	.	.
.	.	8c#	for	.	.	.
.	.	8c#	all	.	.	.
.	.	4d#	my	b	.	.
.	.	16e	life	B	.	.
.	.	16f#	_	.	.	.
=44	=44	=44	=44	=44	=44	=44
1AM	A:maj	2.e	_	.	86.033	.
.	.	4r	.	.	.	.
=45	=45	=45	=45	=45	=45	=45
*>Letter>A	*>Letter>A	*>Letter>A	*>Letter>A	*>Letter>A	*>Letter>A	*>Letter>A
*>Label>Verse	*>Label>Verse	*>Label>Verse	*>Label>Verse	*>Label>Verse	*>Label>Verse	*>Label>Verse
1F#m	F#:min	8A	Me	.	88.015	newline
.	.	8G#	and	.	.	.
.	.	4A	you	A	.	.
.	.	8r	.	.	.	.
.	.	8A	and	.	.	.
.	.	8F#	you	.	.	.
.	.	8G#	and	.	.	.
=46	=46	=46	=46	=46	=46	=46
1F#m	F#:min	4A	me	C	90.047	.
.	.	8r	.	.	.	.
.	.	8c#	No	.	.	.
.	.	8B	ma-	.	.	.
.	.	8A	-tter	.	.	.
.	.	8G#	how	.	.	.
.	.	8F#	they	.	.	.
=47	=47	=47	=47	=47	=47	=47
1EM	E:maj	8G#	toss	.	92.079	.
.	.	8F#	the	.	.	.
.	.	4G#	dice	B	.	.
.	.	8r	.	.	.	.
.	.	8G#	it	.	.	.
.	.	8E	had	.	.	.
.	.	8F#	to	.	.	.
=48	=48	=48	=48	=48	=48	=48
1EM	E:maj	4G#	be	C	94.111	.
.	.	8r	.	.	.	.
.	.	8B	The	.	.	.
.	.	8A	on-	.	.	.
.	.	8G#	-ly	.	.	.
.	.	8F#	one	.	.	.
.	.	8E	for	.	.	.
=49	=49	=49	=49	=49	=49	=49
1DMm	D:7	8F#	me	C	96.143	newline
.	.	8E	is	.	.	.
.	.	4F#	you	A	.	.
.	.	8r	.	.	.	.
.	.	8F#	and	.	.	.
.	.	8D	you	A	.	.
.	.	8E	for	.	.	.
=50	=50	=50	=50	=50	=50	=50
1DMm	D:7	4F#	me	C	98.161	.
.	.	8r	.	.	.	.
.	.	8F#	so	.	.	.
.	.	8F#	ha-	.	.	.
.	.	4G#	-ppy	.	.	.
.	.	8F#	to-	.	.	.
=51	=51	=51	=51	=51	=51	=51
1C#Mm	C#:7	4E#	-ge-	.	100.179	.
.	.	[2.c#	-ther	.	.	.
=52	=52	=52	=52	=52	=52	=52
1C#Mm	C#:7	2.c#]	_	.	102.196	.
.	.	4r	.	.	.	.
=53	=53	=53	=53	=53	=53	=53
*>Letter>B	*>Letter>B	*>Letter>B	*>Letter>B	*>Letter>B	*>Letter>B	*>Letter>B
*>Label>Interlude	*>Label>Interlude	*>Label>Interlude	*>Label>Interlude	*>Label>Interlude	*>Label>Interlude	*>Label>Interlude
1F#M	F#:maj	4f#	Ba	.	104.214	newline
.	.	4c#	ba	.	.	.
.	.	4A#	ba	.	.	.
.	.	4F#	ba	.	.	.
=54	=54	=54	=54	=54	=54	=54
1C#mm	C#:min7	8E#	ba	.	106.252	.
.	.	8G#	ba	.	.	.
.	.	8B	ba	.	.	.
.	.	4d#	ba	.	.	.
.	.	8e	ba	.	.	.
.	.	4d#	ba	.	.	.
=55	=55	=55	=55	=55	=55	=55
1F#M	F#:maj	4c#	ba	.	108.29	.
.	.	8r	.	.	.	.
.	.	8c#	ba	.	.	.
.	.	8c#	ba	.	.	.
.	.	4.d#	ba	.	.	.
=56	=56	=56	=56	=56	=56	=56
1AM	A:maj	2.e	ba	.	110.328	.
.	.	4r	.	.	.	.
=57	=57	=57	=57	=57	=57	=57
1F#M	F#:maj	4f#	ba	.	112.366	newline
.	.	4c#	ba	.	.	.
.	.	4A#	ba	.	.	.
.	.	4F#	ba	.	.	.
=58	=58	=58	=58	=58	=58	=58
1C#mm	C#:min7	8E#	ba	.	114.327	.
.	.	8G#	ba	.	.	.
.	.	8B	ba	.	.	.
.	.	4d#	ba	.	.	.
.	.	8e	ba	.	.	.
.	.	4d#	ba	.	.	.
=59	=59	=59	=59	=59	=59	=59
1F#M	F#:maj	4c#	ba	.	116.289	.
.	.	8r	.	.	.	.
.	.	8c#	ba	.	.	.
.	.	8c#	ba	.	.	.
.	.	4.d#	ba	.	.	.
=60	=60	=60	=60	=60	=60	=60
1C#mm	C#:min7	[1e	ba	.	118.25	.
=61	=61	=61	=61	=61	=61	=61
1C#mm	C#:min7	2.e]	_	.	120.211	.
.	.	4r	.	.	.	.
=62	=62	=62	=62	=62	=62	=62
*>Letter>A	*>Letter>A	*>Letter>A	*>Letter>A	*>Letter>A	*>Letter>A	*>Letter>A
*>Label>Verse	*>Label>Verse	*>Label>Verse	*>Label>Verse	*>Label>Verse	*>Label>Verse	*>Label>Verse
1F#m	F#:min	8A	Me	.	122.173	newline
.	.	8G#	and	.	.	.
.	.	4A	you	A	.	.
.	.	8r	.	.	.	.
.	.	8A	and	.	.	.
.	.	8F#	you	.	.	.
.	.	8G#	and	.	.	.
=63	=63	=63	=63	=63	=63	=63
1F#m	F#:min	4A	me	C	124.221	.
.	.	8r	.	.	.	.
.	.	8c#	No	.	.	.
.	.	8B	ma-	.	.	.
.	.	8A	-tter	.	.	.
.	.	8G#	how	.	.	.
.	.	8F#	they	.	.	.
=64	=64	=64	=64	=64	=64	=64
1EM	E:maj	8G#	toss	.	126.269	.
.	.	8F#	the	.	.	.
.	.	4G#	dice	B	.	.
.	.	8r	.	.	.	.
.	.	8G#	it	.	.	.
.	.	8E	had	.	.	.
.	.	8F#	to	.	.	.
=65	=65	=65	=65	=65	=65	=65
1EM	E:maj	4G#	be	C	128.318	.
.	.	8r	.	.	.	.
.	.	8B	The	.	.	.
.	.	8A	on-	.	.	.
.	.	8G#	-ly	.	.	.
.	.	8F#	one	.	.	.
.	.	8E	for	.	.	.
=66	=66	=66	=66	=66	=66	=66
1DMm	D:7	8F#	me	C	130.366	newline
.	.	8E	is	.	.	.
.	.	4F#	you	A	.	.
.	.	8r	.	.	.	.
.	.	8F#	and	.	.	.
.	.	8D	you	A	.	.
.	.	8E	for	.	.	.
=67	=67	=67	=67	=67	=67	=67
1DMm	D:7	4F#	me	C	132.396	.
.	.	8r	.	.	.	.
.	.	8F#	so	.	.	.
.	.	8F#	ha-	.	.	.
.	.	4G#	-ppy	.	.	.
.	.	8F#	to-	.	.	.
=68	=68	=68	=68	=68	=68	=68
1C#Mm	C#:7	4E#	-ge-	.	134.426	.
.	.	[2.c#	-ther	.	.	.
=69	=69	=69	=69	=69	=69	=69
1F#m	F#:min	4c#]	_	.	136.456	.
.	.	8r	.	.	.	.
.	.	8F#	so	.	.	.
.	.	8F#	ha-	.	.	.
.	.	4G#	-ppy	.	.	.
.	.	8F#	to-	.	.	.
=70	=70	=70	=70	=70	=70	=70
*>Letter>A2	*>Letter>A2	*>Letter>A2	*>Letter>A2	*>Letter>A2	*>Letter>A2	*>Letter>A2
*>Label>Outro	*>Label>Outro	*>Label>Outro	*>Label>Outro	*>Label>Outro	*>Label>Outro	*>Label>Outro
1C#Mm	C#:7	4E#	-ge-	(D	138.487	newline
.	.	[2.c#	-ther	d)	.	.
=71	=71	=71	=71	=71	=71	=71
1F#m	F#:min	4c#]	_	.	140.481	.
.	.	4r	.	.	.	.
.	.	6F#	How	.	.	.
.	.	6G#	is	.	.	.
.	.	6F#	the	.	.	.
=72	=72	=72	=72	=72	=72	=72
1C#Mm	C#:7	4E#	wea-	(D	142.474	.
.	.	[2.c#	-ther?	d)	.	.
=73	=73	=73	=73	=73	=73	=73
1F#m	F#:min	4c#]	_	.	144.468	.
.	.	8r	.	.	.	.
.	.	8F#	so	.	.	.
.	.	8F#	ha-	.	.	.
.	.	4G#	-ppy	.	.	.
.	.	8F#	to-	.	.	.
=74	=74	=74	=74	=74	=74	=74
1C#Mm	C#:7	4E#	-ge-	(D	146.462	.
.	.	[2.c#	-ther	d)	.	.
=75	=75	=75	=75	=75	=75	=75
1F#m	F#:min	4c#]	_	.	148.456	.
.	.	8r	.	.	.	.
.	.	8F#	We're	.	.	.
.	.	8F#	ha-	.	.	.
.	.	4G#	-ppy	.	.	.
.	.	8F#	to-	.	.	.
=76	=76	=76	=76	=76	=76	=76
1C#Mm	C#:7	4E#	-ge-	(D	150.45	.
.	.	[2.c#	-ther	d)	.	.
=77	=77	=77	=77	=77	=77	=77
1F#m	F#:min	4c#]	_	.	152.444	.
.	.	8r	.	.	.	.
.	.	8F#	so	.	.	.
.	.	8F#	ha-	.	.	.
.	.	4G#	-ppy	.	.	.
.	.	8F#	to-	.	.	.
=78	=78	=78	=78	=78	=78	=78
1C#Mm	C#:7	4E#	-ge-	(D	154.438	.
.	.	[2.c#	-ther	d)	.	.
=79	=79	=79	=79	=79	=79	=79
1F#m	F#:min	4c#]	_	.	156.432	.
.	.	4r	.	.	.	.
.	.	8F#	ha-	.	.	.
.	.	4G#	-ppy	.	.	.
.	.	8F#	to-	.	.	.
=80	=80	=80	=80	=80	=80	=80
1C#Mm	C#:7	4E#	-ge-	(D	158.426	.
.	.	[2.c#	-ther	d)	.	.
=81	=81	=81	=81	=81	=81	=81
1F#m	F#:min	4c#]	_	.	160.42	.
.	.	8r	.	.	.	.
.	.	8F#	so	.	.	.
.	.	8F#	ha-	.	.	.
.	.	4G#	-ppy	.	.	.
.	.	8F#	to-	.	.	.
=82	=82	=82	=82	=82	=82	=82
1C#Mm	C#:7	4E#	-ge-	(D	162.414	.
.	.	[2.c#	-ther	d)	.	.
=83	=83	=83	=83	=83	=83	=83
1F#m	F#:min	4c#]	_	.	164.407	.
.	.	8r	.	.	.	.
.	.	8F#	so	.	.	.
.	.	8F#	ha-	.	.	.
.	.	4G#	-ppy	.	.	.
.	.	8F#	to-	.	.	.
=84	=84	=84	=84	=84	=84	=84
1C#Mm	C#:7	4E#	-ge-	(D	166.401	newline
.	.	[2.c#	-ther	d)	.	.
=85	=85	=85	=85	=85	=85	=85
1F#M	F#:maj	4c#]	_	.	168.419	.
.	.	4r	.	.	.	.
.	.	2r	.	.	.	.
1r;	1r	r;	.	.	172.455	.
1r;	1r	r;	.	.	174.864	.
*-	*-	*-	*-	*-	*-	*-
!!!BillboardChartDate: 1967/04/22
!!!BillboardPeak: 1
!!!BillboardWeeksOnChart: 15
!!!COC: The Turtles
!!!ENC: Nathaniel Condit-Schultz
!!!EST: Awating manual error checking and editing.
!!!OTL: Happy Together
!!!RDF**chordsym: original McGill chord annotation + (implied pitch class set, with bass pitch in first position)
!!!RDF**harmony: **recip + pitch class of root + harmonic quality
!!!RDF**leadinstrument: original McGill primary instrumentation annotation
!!!RDF**phrase: newline = linebreak in original McGill transcription
!!!RDF**timestamp: McGill audio timestamp in seconds
!!!RDT: 2017/01/12/
!!!SampleActualRank: 2
!!!SampleID#: 1290
!!!SampleTargetRank: 2
!!!MBID: 5c39df9b-c98b-4f47-8a28-7547ee482234